X:1
T:Title
%%score { 1 | 2 }
L:1/8
M:4/4
K:F
V:1 treble nm="Grand Piano"
V:2 treble 
V:1
 z4 z2[Q:1/4=100] c2 | A2 F2 G2 A2 | B3 B A2 G2 | F2 A2 [DFc]2 [DFB]2 |[M:3/4] [CEG]6 | %5
[M:1/4] [CEG]2 |[M:4/4] [CFA]3 [CFA] [DG=B]2 [CGc]2 | e3 d c2 A2 | G2 c2 c3 d |[M:3/4] [Ec]6 | %10
[M:1/4] [_Ec]2 |[M:4/4] B3 A A2 G2 | [^Fd]3 [Fc] B2 A2 | G2 A2 B2 [DG]2 |[M:3/4] F4 E2 | %15
[M:1/4] E2 |[M:4/4] F2 F2 G2 G2 | A2 [FA]2 [FB]2 [F=B]2 | [Fc]2 [Fd]2 [EB]3 [EG] |[M:3/4] F6 |] %20
V:2
 z4 z2 [F,A,F]2 | [F,CF]2 [A,C]2 [G,CE]2 [F,CF]2 | [G,B,D]3 [G,B,D] [CE]2[K:bass] [B,CE]2 | %3
 [A,C]2 [F,CF]2 B,,2 B,,2 |[M:3/4] C,6 |[M:1/4] C,2 |[M:4/4] F,3 F, F,2 E,2 | %7
 [G,=B,G]3 [G,B,F] [A,CE]2 [F,CF]2 | [G,CE]2 [G,E]2 [G,A,F]3 [G,=B,F] |[M:3/4][K:bass] [C,C]6 | %10
[M:1/4] [C,G,]2 |[M:4/4] [D,^F,D]3 [D,CD] [D,B,D]2 [D,B,D]2 | %12
 [D,A,]3 [D,D][K:treble] [G,DG]2 [A,D^F]2 | [B,D]2 [A,D^F]2 [G,DG]2[K:bass] [B,,B,]2 | %14
[M:3/4] [C,G,C]6 |[M:1/4] [B,C]2 |[M:4/4] [A,C]2 [A,C]2 [G,CE]2 [G,CE]2 | %17
 [F,CF]2 [_E,C]2 [D,B,]2 [^C,_A,]2 | [C,A,]2 [C,B,]2 [C,G,]3 [C,B,] |[M:3/4] [F,A,]6 |] %20

